public/assets/img/icons/mep-services.svg

<svg id="e6Trs37xnpY1" xmlns="http://www.w3.org/2000/svg" xmlns:xlink="http://www.w3.org/1999/xlink" viewBox="0 0 44 44" shape-rendering="geometricPrecision" text-rendering="geometricPrecision" project-id="0fa08ac7e8124f8b8fd1c5e8824e4df2" export-id="890210aa9cdb4c5c8c7a8290d2a0a4e0" cached="false">
<style><![CDATA[
#e6Trs37xnpY4 {animation: e6Trs37xnpY4_s_do 3000ms linear infinite normal forwards}@keyframes e6Trs37xnpY4_s_do { 0% {stroke-dashoffset: 172.55} 33.333333% {stroke-dashoffset: 172.55} 66.666667% {stroke-dashoffset: 0} 100% {stroke-dashoffset: 0}} #e6Trs37xnpY5 {animation: e6Trs37xnpY5_s_do 3000ms linear infinite normal forwards}@keyframes e6Trs37xnpY5_s_do { 0% {stroke-dashoffset: 64.13} 16.666667% {stroke-dashoffset: 64.13} 50% {stroke-dashoffset: 0} 100% {stroke-dashoffset: 0}} #e6Trs37xnpY6 {animation: e6Trs37xnpY6_s_do 3000ms linear infinite normal forwards}@keyframes e6Trs37xnpY6_s_do { 0% {stroke-dashoffset: 64.13} 30% {stroke-dashoffset: 0} 100% {stroke-dashoffset: 0}}
]]></style>
<g clip-path="url(#e6Trs37xnpY7)"><g><path id="e6Trs37xnpY4" d="M34.4237,26.027c-.8462,0-1.6678.1321-2.4401.3632L17.9429,12.295c.2383-.7757.3697-1.6092.3697-2.45922c0-4.62136-3.7217-8.35971-8.31428-8.35971s-8.32254,3.73835-8.32254,8.35146s3.72173,8.35147,8.31433,8.35147c.82979,0,1.63489-.1238,2.39899-.3549L26.4544,31.9523c-.23.7675-.3532,1.5762-.3532,2.418c0,4.6131,3.7217,8.3514,8.3143,8.3514s8.3143-3.7383,8.3143-8.3514-3.7217-8.3515-8.3143-8.3515l.0082.0082ZM6.47377,9.82753c0-1.95582,1.57742-3.53204,3.51634-3.53204s3.51629,1.58447,3.51629,3.53204-1.5774,3.53207-3.51629,3.53207-3.51634-1.5845-3.51634-3.53207ZM34.4237,37.9188c-1.9471,0-3.5163-1.5845-3.5163-3.532c0-1.9476,1.5774-3.5321,3.5163-3.5321s3.5163,1.5845,3.5163,3.5321c0,1.9475-1.5774,3.532-3.5163,3.532Z" fill="none" stroke="#ee3524" stroke-width="1.5" stroke-miterlimit="10" stroke-dashoffset="172.55" stroke-dasharray="172.55"/><path id="e6Trs37xnpY5" d="M29.5091,20.1513l2.8591-2.8719c.7476.2311,1.5445.3549,2.3661.3549c4.4201,0,8.0104-3.6063,8.0104-8.04614c0-1.27913-.304-2.49224-.8298-3.5733L38.0945,9.85223c-1.0516,1.05627-2.7522,1.05627-3.7956,0-1.0516-1.05631-1.0516-2.76456,0-3.81262l3.7546-3.77136c-1.0106-.46213-2.1361-.71796-3.311-.71796-4.42,0-8.0103,3.60631-8.0103,8.04612c0,.60239.0657,1.18839.1889,1.74949L23.832,14.4488" fill="none" stroke="#ee3524" stroke-width="1.5" stroke-miterlimit="10" stroke-dashoffset="64.13" stroke-dasharray="64.13"/><path id="e6Trs37xnpY6" d="M14.7082,23.9971l-2.8591,2.8718c-.7476-.2311-1.5445-.3548-2.3661-.3548-4.42007,0-8.01034,3.6063-8.01034,8.0461c0,1.2791.30398,2.4922.82979,3.5733l3.82031-3.8374c1.05162-1.0563,2.75227-1.0563,3.79567,0c1.05157,1.0563,1.05157,2.7646,0,3.8126L6.16384,41.8801c1.01054.4621,2.13609.7179,3.31094.7179c4.42002,0,8.01032-3.6063,8.01032-8.0461c0-.6024-.0657-1.1883-.1889-1.7495l3.0891-3.1029" fill="none" stroke="#ee3524" stroke-width="1.5" stroke-miterlimit="10" stroke-dashoffset="64.13" stroke-dasharray="64.13"/></g><clipPath id="e6Trs37xnpY7"><rect width="42.5" height="42.5" rx="0" ry="0" transform="translate(.855469 0.857178)" fill="#fff"/></clipPath></g></svg>

<svg width="44" height="44" viewBox="0 0 44 44" fill="none" xmlns="http://www.w3.org/2000/svg">
<g clip-path="url(#clip0_614_866)">
<path d="M34.4237 26.027C33.5775 26.027 32.7559 26.1591 31.9836 26.3902L17.9429 12.295C18.1812 11.5193 18.3126 10.6858 18.3126 9.83578C18.3126 5.21442 14.5909 1.47607 9.99832 1.47607C5.40573 1.47607 1.67578 5.21442 1.67578 9.82753C1.67578 14.4406 5.39751 18.179 9.99011 18.179C10.8199 18.179 11.625 18.0552 12.3891 17.8241L26.4544 31.9523C26.2244 32.7198 26.1012 33.5285 26.1012 34.3703C26.1012 38.9834 29.8229 42.7217 34.4155 42.7217C39.0081 42.7217 42.7298 38.9834 42.7298 34.3703C42.7298 29.7571 39.0081 26.0188 34.4155 26.0188L34.4237 26.027ZM6.47377 9.82753C6.47377 7.87171 8.05119 6.29549 9.99011 6.29549C11.929 6.29549 13.5064 7.87996 13.5064 9.82753C13.5064 11.7751 11.929 13.3596 9.99011 13.3596C8.05119 13.3596 6.47377 11.7751 6.47377 9.82753ZM34.4237 37.9188C32.4766 37.9188 30.9074 36.3343 30.9074 34.3868C30.9074 32.4392 32.4848 30.8547 34.4237 30.8547C36.3626 30.8547 37.94 32.4392 37.94 34.3868C37.94 36.3343 36.3626 37.9188 34.4237 37.9188Z" stroke="#EE3524" stroke-width="1.5" stroke-miterlimit="10"/>
<path d="M29.5091 20.1513L32.3682 17.2794C33.1158 17.5105 33.9127 17.6343 34.7343 17.6343C39.1544 17.6343 42.7447 14.028 42.7447 9.58816C42.7447 8.30903 42.4407 7.09592 41.9149 6.01486L38.0945 9.85223C37.0429 10.9085 35.3423 10.9085 34.2989 9.85223C33.2473 8.79592 33.2473 7.08767 34.2989 6.03961L38.0535 2.26825C37.0429 1.80612 35.9174 1.55029 34.7425 1.55029C30.3225 1.55029 26.7322 5.1566 26.7322 9.59641C26.7322 10.1988 26.7979 10.7848 26.9211 11.3459L23.832 14.4488" stroke="#EE3524" stroke-width="1.5" stroke-miterlimit="10"/>
<path d="M14.7082 23.9971L11.8491 26.8689C11.1015 26.6378 10.3046 26.5141 9.483 26.5141C5.06293 26.5141 1.47266 30.1204 1.47266 34.5602C1.47266 35.8393 1.77664 37.0524 2.30245 38.1335L6.12276 34.2961C7.17438 33.2398 8.87503 33.2398 9.91843 34.2961C10.97 35.3524 10.97 37.0607 9.91843 38.1087L6.16384 41.8801C7.17438 42.3422 8.29993 42.598 9.47478 42.598C13.8948 42.598 17.4851 38.9917 17.4851 34.5519C17.4851 33.9495 17.4194 33.3636 17.2962 32.8024L20.3853 29.6995" stroke="#EE3524" stroke-width="1.5" stroke-miterlimit="10"/>
</g>
<defs>
<clipPath id="clip0_614_866">
<rect width="42.5" height="42.5" fill="white" transform="translate(0.855469 0.857178)"/>
</clipPath>
</defs>
</svg>
